X: 27666
T: More Rum For The Piper
R: reel
M: 4/4
K: Amixolydian
|:dcBA AABA|GGGB AABG|dcBA AABG|AAAB e2 Ae:|
|:g2 dB d2 Bd|e2 dB ee e2|g2 dB BBdB|AAAB e2 Ae:|

